Yaru++/mimetypes/48/application-vnd.openofficeorg.extension.svg

<svg height="48" viewBox="0 0 12.699375 12.699375" width="48" xmlns="http://www.w3.org/2000/svg" xmlns:xlink="http://www.w3.org/1999/xlink"><linearGradient id="a" gradientUnits="userSpaceOnUse" x1="6.350073" x2="6.350073" y1=".396856" y2="12.03795"><stop offset="0" stop-color="#fff"/><stop offset=".125" stop-color="#fff" stop-opacity=".098039"/><stop offset=".92500001" stop-color="#fff" stop-opacity=".098039"/><stop offset="1" stop-color="#fff" stop-opacity=".498039"/></linearGradient><linearGradient id="b" gradientTransform="matrix(0 -.02724623 .02663901 0 -1.995911 12.951919)" gradientUnits="userSpaceOnUse" x1="459.03448" x2="35.310345" y1="419.23337" y2="207.36522"><stop offset="0" stop-color="#f2f2f2"/><stop offset="1" stop-color="#f9f9f9"/></linearGradient><linearGradient id="c" gradientTransform="matrix(0 -.03065201 .03080135 0 -3.299968 13.793736)" gradientUnits="userSpaceOnUse" x1="441.37933" x2="52.965569" y1="240.30261" y2="386.30783"><stop offset="0" stop-color="#333"/><stop offset="1" stop-color="#666"/></linearGradient><path d="m4.1621982.39685625c-.5881133-.00895835-1.0513178.01354071-1.4323995.0775109-.3810845.06396887-.6929229.18395548-.9213476.41184069-.2284221.22788556-.3489841.53958346-.4123567.92082876-.0633725.3812456-.0757438.8453924-.07286 1.4349839v3.2399529 3.241503c-.00286.5886856.00955 1.0525976.07286 1.4334336.063373.381246.1839346.692944.4123567.920829.2284247.227885.5402631.347873.9213476.411841.3810844.06397.8442174.07751 1.4323995.07751h4.3757443c.5881821 0 1.0510744-.01352 1.4313677-.07751.3802948-.064.6911808-.18439.9187608-.412357.227584-.227967.347434-.539443.411325-.920313.06389-.380868.07751-.844073.07751-1.4334336v-3.241503-3.1748437l-2.8389635-2.84361416z" opacity=".1"/><path d="m4.1016778.26457163c-2.3993776 0-2.657548.24524318-2.6457878 2.63774847v3.3150835 3.3150838c-.011773 2.3925046.2464102 2.6377476 2.6457878 2.6377476h4.4971582c2.399379 0 2.645789-.245214 2.645789-2.6377476v-3.3150838l-.000183-3.2469992-2.719093-2.70583277z" fill="url(#c)"/><path d="m4.405513.92599684c-2.2885676 0-2.2885676 0-2.2882475 2.34466546v2.9467408 2.9467407c-.0003201 2.3446652-.0003201 2.3446652 2.2882475 2.3446652h3.8894349c2.2882481 0 2.2882481 0 2.2882481-2.3446652v-2.9467407-3.1748438l-2.1165631-2.11656246z" fill="url(#b)"/><path d="m9.5249115 7.4048211c-.0013229-.3640593-.2574878-.6582827-.5487374-.6582774-.2743673 0-.5095412.4133911-.5095412-.082678v.7854431.041339.6614258c0-.4960693.2351739-.082678.5095412-.082678.2922365 0 .5487374-.2961309.5487374-.6614258.0000026-.00106.0000026-.00212 0-.00315z" fill="#46a926" fill-rule="evenodd" stroke-linecap="round" stroke-linejoin="round" stroke-width=".198429"/><path d="m3.9689376 5.1591218v1.5047437c0 .4960693.2351368.082678.5095042.082678.2912496-.0000053.5474542.294266.548777.6583253.0000027.00103.0000027.00204 0 .0031 0 .3652948-.2565406.6614257-.548777.6614257-.2743674-.0000002-.5095042-.4133913-.5095042.082678v1.5047437h1.5047436c.4960693 0 .082678-.2351359.082678-.5095045-.0000053-.2912493.2942657-.5473746.6583251-.5487768.00106-.0000021.00212-.0000021.0031 0 .3652949 0 .6614258.2565411.6614258.5487768.0000053.2743686-.4133858.5095045.082683.5095045h1.5047398v-4.4976944z" fill="#46a926" fill-rule="evenodd" stroke-linecap="square" stroke-linejoin="round" stroke-width=".198428"/><path d="m4.1621982.13228594c-.5881821 0-1.0513178.0135407-1.4323995.0775109-.3810845.0639689-.6929229.18395547-.9213476.41184073-.2284221.22788547-.3489841.53958343-.4123567.92082873-.063373.3812456-.075744.8453924-.07286 1.4349839v3.2399529 3.241503c-.00286.5886859.00955 1.0525979.07286 1.4334329.063373.381246.1839346.692944.4123567.920829.2284247.227885.5402631.347873.9213476.411841.3810844.06397.8442174.07751 1.4323995.07751h4.3757443c.5881821 0 1.0510744-.01352 1.4313677-.07751.3802948-.064.6911808-.184389.9187608-.412356.227584-.227967.347434-.539443.411325-.920314.06389-.380867.07751-.844072.07751-1.4334329v-3.241503-3.2843923l-2.8007251-2.80072486zm0 .26457031h4.3044347l2.6457041 2.64570305v3.1748438 3.241503c0 2.3393649-.239777 2.5790439-2.5743945 2.5790439h-4.3757443c-2.334616 0-2.5858494-.239706-2.5743935-2.5790439v-3.241503-3.241503c-.0114426-2.33933865.2397775-2.57904385 2.5743935-2.57904385z" opacity=".4"/><path d="m4.1621982.39685625c-2.334616 0-2.5858361.2397052-2.5743935 2.57904385v3.241503 3.241503c-.011456 2.3393379.2397775 2.5790439 2.5743935 2.5790439h4.3757443c2.3346175 0 2.5743945-.239679 2.5743945-2.5790439v-3.241503-3.1748438h-.26457v3.1748438 3.241503c0 .5803219-.01624 1.0240719-.07028 1.3461039-.05402.322035-.139871.509123-.264055.633524-.124184.124388-.310701.2105-.6319719.264571-.321273.05406-.7643965.07028-1.3435224.07028h-4.3757395c-.5791259 0-1.0227997-.01619-1.3450728-.07028-.3222705-.054102-.5102953-.14009-.6350719-.264571-.124774-.124488-.2105874-.311351-.2640518-.633005-.053467-.321654-.0684681-.765512-.0656267-1.3455895v-.0005291-3.2420073-3.2420198-.0005291c-.00283-.5800778.01217-1.0239334.065627-1.3455882.053467-.3216548.1392778-.5085248.2640518-.63300506.124774-.1244803.31332-.2104736.6355904-.26457032.3222705-.0540718.7654284-.070264 1.3445543-.070264h4.3044347v-.26457032z" fill="url(#a)" opacity=".4"/><path d="m11.112337 3.3071297v-.2645704l-2.6457041-2.64570305h-.2645703v1.11359065.042668.022917c0 1.5059289.201592 1.7381397 1.7109762 1.7307589z" opacity=".6"/><path d="m11.112337 3.0422207-2.6457041-2.64536498v.98127588.042668.022917c0 1.5059289.069402 1.6058846 1.5787861 1.5985039z" fill="#888"/><path d="m6.2146368 4.1008422c-.3640593.0014-.6582827.2574883-.6582774.5487376 0 .2743687.4133911.509542-.082678.509542h.7854431.041339.6614258c-.4960693 0-.082678-.2351733-.082678-.509542 0-.2922356-.2961309-.5487376-.6614258-.5487376-.00106-.0000021-.00212-.0000021-.00315 0z" fill="#46a926" fill-rule="evenodd" stroke-linecap="round" stroke-linejoin="round" stroke-width=".198429"/></svg>

<?xml version="1.0" encoding="UTF-8" standalone="no"?>
<svg
   xmlns:dc="http://purl.org/dc/elements/1.1/"
   xmlns:cc="http://creativecommons.org/ns#"
   xmlns:rdf="http://www.w3.org/1999/02/22-rdf-syntax-ns#"
   xmlns:svg="http://www.w3.org/2000/svg"
   xmlns="http://www.w3.org/2000/svg"
   xmlns:xlink="http://www.w3.org/1999/xlink"
   xmlns:sodipodi="http://sodipodi.sourceforge.net/DTD/sodipodi-0.dtd"
   xmlns:inkscape="http://www.inkscape.org/namespaces/inkscape"
   height="48"
   viewBox="0 0 12.699375 12.699375"
   width="48"
   version="1.1"
   id="svg42"
   sodipodi:docname="application-certificate.svg"
   inkscape:version="0.92.5 (2060ec1f9f, 2020-04-08)">
  <metadata
     id="metadata48">
    <rdf:RDF>
      <cc:Work
         rdf:about="">
        <dc:format>image/svg+xml</dc:format>
        <dc:type
           rdf:resource="http://purl.org/dc/dcmitype/StillImage" />
        <dc:title></dc:title>
      </cc:Work>
    </rdf:RDF>
  </metadata>
  <defs
     id="defs46">
    <linearGradient
       id="linearGradient1165">
      <stop
         offset="0"
         style="stop-color:#333333;stop-opacity:1"
         id="stop1161" />
      <stop
         offset="1"
         style="stop-color:#666666;stop-opacity:1"
         id="stop1163" />
    </linearGradient>
    <linearGradient
       gradientTransform="matrix(0.26457031,0,0,0.26457031,-84.662114,-16.006503)"
       inkscape:collect="always"
       xlink:href="#linearGradient927"
       id="linearGradient1004"
       x1="344"
       y1="62"
       x2="344"
       y2="106"
       gradientUnits="userSpaceOnUse" />
    <linearGradient
       inkscape:collect="always"
       id="linearGradient927">
      <stop
         style="stop-color:#ffffff;stop-opacity:1;"
         offset="0"
         id="stop923" />
      <stop
         id="stop933"
         offset="0.125"
         style="stop-color:#ffffff;stop-opacity:0.09803922" />
      <stop
         id="stop931"
         offset="0.92500001"
         style="stop-color:#ffffff;stop-opacity:0.09803922" />
      <stop
         style="stop-color:#ffffff;stop-opacity:0.49803922"
         offset="1"
         id="stop925" />
    </linearGradient>
    <linearGradient
       inkscape:collect="always"
       xlink:href="#linearGradient4338"
       id="linearGradient1024-1"
       gradientUnits="userSpaceOnUse"
       gradientTransform="matrix(0,-0.02724623,0.02663901,0,-1.9959112,12.951919)"
       x1="459.03448"
       y1="419.23337"
       x2="35.310345"
       y2="207.36522" />
    <linearGradient
       inkscape:collect="always"
       id="linearGradient4338">
      <stop
         style="stop-color:#f2f2f2;stop-opacity:1"
         offset="0"
         id="stop4340" />
      <stop
         style="stop-color:#f9f9f9;stop-opacity:1"
         offset="1"
         id="stop4342" />
    </linearGradient>
    <linearGradient
       inkscape:collect="always"
       xlink:href="#linearGradient1165"
       id="linearGradient1024"
       gradientUnits="userSpaceOnUse"
       gradientTransform="matrix(0,-0.03065201,0.03080135,0,-3.2999677,13.793736)"
       x1="441.37933"
       y1="240.30261"
       x2="52.965569"
       y2="386.30783" />
  </defs>
  <sodipodi:namedview
     pagecolor="#ffffff"
     bordercolor="#666666"
     borderopacity="1"
     objecttolerance="10"
     gridtolerance="10"
     guidetolerance="10"
     inkscape:pageopacity="0"
     inkscape:pageshadow="2"
     inkscape:window-width="1920"
     inkscape:window-height="1024"
     id="namedview44"
     showgrid="false"
     inkscape:zoom="17.104167"
     inkscape:cx="24"
     inkscape:cy="24"
     inkscape:window-x="0"
     inkscape:window-y="28"
     inkscape:window-maximized="1"
     inkscape:current-layer="svg42" />
  <linearGradient
     id="a"
     gradientTransform="matrix(0,-0.11988342,0.11987999,0,0.362762,292.01605)"
     gradientUnits="userSpaceOnUse"
     x1="529.65515"
     x2="-35.310345"
     y1="401.58368"
     y2="119.09284">
    <stop
       offset="0"
       stop-color="#f2f2f2"
       id="stop2" />
    <stop
       offset="1"
       stop-color="#f9f9f9"
       id="stop4" />
  </linearGradient>
  <linearGradient
     id="b"
     gradientUnits="userSpaceOnUse"
     x1="88"
     x2="488"
     y1="88"
     y2="488">
    <stop
       offset="0"
       stop-opacity=".588235"
       id="stop7" />
    <stop
       offset=".88"
       stop-opacity="0"
       id="stop9" />
    <stop
       offset="1"
       id="stop11" />
  </linearGradient>
  <filter
     id="c"
     height="1.087725"
     width="1.105998"
     x="-0.052999001"
     y="-0.043862998"
     style="color-interpolation-filters:sRGB">
    <feGaussianBlur
       stdDeviation="8.4801079"
       id="feGaussianBlur14" />
  </filter>
  <filter
     id="d"
     height="1.0219311"
     width="1.0265"
     x="-0.01325"
     y="-0.010966"
     style="color-interpolation-filters:sRGB">
    <feGaussianBlur
       stdDeviation="2.120027"
       id="feGaussianBlur17" />
  </filter>
  <path
     style="color:#000000;font-style:normal;font-variant:normal;font-weight:normal;font-stretch:normal;font-size:medium;line-height:normal;font-family:sans-serif;font-variant-ligatures:normal;font-variant-position:normal;font-variant-caps:normal;font-variant-numeric:normal;font-variant-alternates:normal;font-feature-settings:normal;text-indent:0;text-align:start;text-decoration:none;text-decoration-line:none;text-decoration-style:solid;text-decoration-color:#000000;letter-spacing:normal;word-spacing:normal;text-transform:none;writing-mode:lr-tb;direction:ltr;text-orientation:mixed;dominant-baseline:auto;baseline-shift:baseline;text-anchor:start;white-space:normal;shape-padding:0;clip-rule:nonzero;display:inline;overflow:visible;visibility:visible;opacity:0.1;isolation:auto;mix-blend-mode:normal;color-interpolation:sRGB;color-interpolation-filters:linearRGB;solid-color:#000000;solid-opacity:1;vector-effect:none;fill:#000000;fill-opacity:1;fill-rule:nonzero;stroke:none;stroke-width:0.52914065;stroke-linecap:butt;stroke-linejoin:miter;stroke-miterlimit:4;stroke-dasharray:none;stroke-dashoffset:0;stroke-opacity:1;marker:none;color-rendering:auto;image-rendering:auto;shape-rendering:auto;text-rendering:auto;enable-background:accumulate"
     d="M 4.1621982,0.39685625 C 3.5740849,0.3878979 3.1108804,0.41039696 2.7297987,0.47436715 2.3487142,0.53833602 2.0368758,0.65832263 1.8084511,0.88620784 1.580029,1.1140934 1.459467,1.4257913 1.3960944,1.8070366 1.3327219,2.1882822 1.3203506,2.652429 1.3232344,3.2420205 v 3.2399529 3.241503 c -0.00286,0.5886856 0.00955,1.0525976 0.07286,1.4334336 0.063373,0.381246 0.1839346,0.692944 0.4123567,0.920829 0.2284247,0.227885 0.5402631,0.347873 0.9213476,0.411841 0.3810844,0.06397 0.8442174,0.07751 1.4323995,0.07751 h 4.3757443 c 0.5881821,0 1.0510744,-0.01352 1.4313677,-0.07751 0.3802948,-0.064 0.6911808,-0.18439 0.9187608,-0.412357 0.227584,-0.227967 0.347434,-0.539443 0.411325,-0.920313 0.06389,-0.380868 0.07751,-0.844073 0.07751,-1.4334336 V 6.4819734 3.3071297 L 8.5379425,0.46351554 Z"
     id="path1020"
     inkscape:connector-curvature="0"
     sodipodi:nodetypes="sccsccccccsscccscccs" />
  <path
     style="color:#000000;display:inline;overflow:visible;visibility:visible;fill:url(#linearGradient1024);fill-opacity:1;fill-rule:nonzero;stroke:none;stroke-width:0.26457033;marker:none;enable-background:accumulate"
     d="m 4.1016778,0.26457163 c -2.3993776,0 -2.657548,0.24524318 -2.6457878,2.63774847 V 6.2174036 9.5324874 C 1.444117,11.924992 1.7023002,12.170235 4.1016778,12.170235 H 8.598836 c 2.399379,0 2.645789,-0.245214 2.645789,-2.6377476 V 6.2174036 L 11.244442,2.9704044 8.525349,0.26457163 Z"
     id="path964"
     inkscape:connector-curvature="0"
     sodipodi:nodetypes="scccssscccs" />
  <path
     style="color:#000000;display:inline;overflow:visible;visibility:visible;fill:url(#linearGradient1024-1);fill-opacity:1;fill-rule:nonzero;stroke:none;stroke-width:0.2645703;marker:none;enable-background:accumulate"
     d="m 4.405513,0.92599684 c -2.2885676,0 -2.2885676,0 -2.2882475,2.34466546 V 6.2174031 9.1641438 C 2.1169454,11.508809 2.1169454,11.508809 4.405513,11.508809 h 3.8894349 c 2.2882481,0 2.2882481,0 2.2882481,-2.3446652 V 6.2174031 3.0425593 L 8.4666329,0.92599684 Z"
     id="path964-4"
     inkscape:connector-curvature="0"
     sodipodi:nodetypes="scccssscccs" />
  <path
     inkscape:connector-curvature="0"
     id="path1071"
     style="display:inline;opacity:1;fill:#46a926;fill-opacity:1;fill-rule:evenodd;stroke-width:0.19842853;stroke-linecap:round;stroke-linejoin:round;enable-background:new"
     d="M 9.5249115,7.4048211 C 9.5235886,7.0407618 9.2674237,6.7465384 8.9761741,6.7465437 c -0.2743673,0 -0.5095412,0.4133911 -0.5095412,-0.082678 v 0.7854431 0.041339 0.6614258 c 0,-0.4960693 0.2351739,-0.082678 0.5095412,-0.082678 0.2922365,0 0.5487374,-0.2961309 0.5487374,-0.6614258 2.6e-6,-0.00106 2.6e-6,-0.00212 0,-0.00315 z" />
  <path
     inkscape:connector-curvature="0"
     id="rect1067"
     style="display:inline;fill:#46a926;fill-opacity:1;fill-rule:evenodd;stroke-width:0.19842774;stroke-linecap:square;stroke-linejoin:round;enable-background:new"
     d="m 3.9689376,5.1591218 v 1.5047437 c 0,0.4960693 0.2351368,0.082678 0.5095042,0.082678 0.2912496,-5.3e-6 0.5474542,0.294266 0.548777,0.6583253 2.7e-6,0.00103 2.7e-6,0.00204 0,0.0031 0,0.3652948 -0.2565406,0.6614257 -0.548777,0.6614257 -0.2743674,-2e-7 -0.5095042,-0.4133913 -0.5095042,0.082678 v 1.5047437 h 1.5047436 c 0.4960693,0 0.082678,-0.2351359 0.082678,-0.5095045 -5.3e-6,-0.2912493 0.2942657,-0.5473746 0.6583251,-0.5487768 0.00106,-2.1e-6 0.00212,-2.1e-6 0.0031,0 0.3652949,0 0.6614258,0.2565411 0.6614258,0.5487768 5.3e-6,0.2743686 -0.4133858,0.5095045 0.082683,0.5095045 H 8.4666329 V 5.1591218 Z" />
  <path
     style="color:#000000;font-style:normal;font-variant:normal;font-weight:normal;font-stretch:normal;font-size:medium;line-height:normal;font-family:sans-serif;font-variant-ligatures:normal;font-variant-position:normal;font-variant-caps:normal;font-variant-numeric:normal;font-variant-alternates:normal;font-feature-settings:normal;text-indent:0;text-align:start;text-decoration:none;text-decoration-line:none;text-decoration-style:solid;text-decoration-color:#000000;letter-spacing:normal;word-spacing:normal;text-transform:none;writing-mode:lr-tb;direction:ltr;text-orientation:mixed;dominant-baseline:auto;baseline-shift:baseline;text-anchor:start;white-space:normal;shape-padding:0;clip-rule:nonzero;display:inline;overflow:visible;visibility:visible;opacity:0.4;isolation:auto;mix-blend-mode:normal;color-interpolation:sRGB;color-interpolation-filters:linearRGB;solid-color:#000000;solid-opacity:1;vector-effect:none;fill:#000000;fill-opacity:1;fill-rule:nonzero;stroke:none;stroke-width:0.52914065;stroke-linecap:butt;stroke-linejoin:miter;stroke-miterlimit:4;stroke-dasharray:none;stroke-dashoffset:0;stroke-opacity:1;marker:none;color-rendering:auto;image-rendering:auto;shape-rendering:auto;text-rendering:auto;enable-background:accumulate"
     d="m 4.1621982,0.13228594 c -0.5881821,0 -1.0513178,0.0135407 -1.4323995,0.0775109 C 2.3487142,0.27376574 2.0368758,0.39375231 1.8084511,0.62163757 1.580029,0.84952304 1.459467,1.161221 1.3960944,1.5424663 1.3327214,1.9237119 1.3203504,2.3878587 1.3232344,2.9774502 v 3.2399529 3.241503 c -0.00286,0.5886859 0.00955,1.0525979 0.07286,1.4334329 0.063373,0.381246 0.1839346,0.692944 0.4123567,0.920829 0.2284247,0.227885 0.5402631,0.347873 0.9213476,0.411841 0.3810844,0.06397 0.8442174,0.07751 1.4323995,0.07751 h 4.3757443 c 0.5881821,0 1.0510744,-0.01352 1.4313677,-0.07751 0.3802948,-0.064 0.6911808,-0.184389 0.9187608,-0.412356 0.227584,-0.227967 0.347434,-0.539443 0.411325,-0.920314 0.06389,-0.380867 0.07751,-0.844072 0.07751,-1.4334329 V 6.2174031 2.9330108 L 8.5761809,0.13228594 Z m 0,0.26457031 H 8.4666329 L 11.112337,3.0425593 v 3.1748438 3.241503 c 0,2.3393649 -0.239777,2.5790439 -2.5743945,2.5790439 H 4.1621982 c -2.334616,0 -2.5858494,-0.239706 -2.5743935,-2.5790439 V 6.2174031 2.9759001 C 1.5763621,0.63656145 1.8275822,0.39685625 4.1621982,0.39685625 Z"
     id="path958"
     inkscape:connector-curvature="0"
     sodipodi:nodetypes="sccsccccccsscccscccsscccssscccs" />
  <path
     style="color:#000000;font-style:normal;font-variant:normal;font-weight:normal;font-stretch:normal;font-size:medium;line-height:normal;font-family:sans-serif;font-variant-ligatures:normal;font-variant-position:normal;font-variant-caps:normal;font-variant-numeric:normal;font-variant-alternates:normal;font-feature-settings:normal;text-indent:0;text-align:start;text-decoration:none;text-decoration-line:none;text-decoration-style:solid;text-decoration-color:#000000;letter-spacing:normal;word-spacing:normal;text-transform:none;writing-mode:lr-tb;direction:ltr;text-orientation:mixed;dominant-baseline:auto;baseline-shift:baseline;text-anchor:start;white-space:normal;shape-padding:0;clip-rule:nonzero;display:inline;overflow:visible;visibility:visible;opacity:0.4;isolation:auto;mix-blend-mode:normal;color-interpolation:sRGB;color-interpolation-filters:linearRGB;solid-color:#000000;solid-opacity:1;vector-effect:none;fill:url(#linearGradient1004);fill-opacity:1;fill-rule:nonzero;stroke:none;stroke-width:0.52914065;stroke-linecap:butt;stroke-linejoin:miter;stroke-miterlimit:4;stroke-dasharray:none;stroke-dashoffset:0;stroke-opacity:1;marker:none;color-rendering:auto;image-rendering:auto;shape-rendering:auto;text-rendering:auto;enable-background:accumulate"
     clip-path="none"
     d="m 4.1621982,0.39685625 c -2.334616,0 -2.5858361,0.2397052 -2.5743935,2.57904385 v 3.241503 3.241503 C 1.5763487,11.798244 1.8275822,12.03795 4.1621982,12.03795 h 4.3757443 c 2.3346175,0 2.5743945,-0.239679 2.5743945,-2.5790439 V 6.2174031 3.0425593 h -0.26457 v 3.1748438 3.241503 c 0,0.5803219 -0.01624,1.0240719 -0.07028,1.3461039 -0.05402,0.322035 -0.139871,0.509123 -0.264055,0.633524 -0.124184,0.124388 -0.310701,0.2105 -0.6319719,0.264571 -0.321273,0.05406 -0.7643965,0.07028 -1.3435224,0.07028 H 4.1621982 c -0.5791259,0 -1.0227997,-0.01619 -1.3450728,-0.07028 C 2.4948549,11.649003 2.3068301,11.563015 2.1820535,11.438534 2.0572795,11.314046 1.9714661,11.127183 1.9180017,10.805529 1.8645347,10.483875 1.8495336,10.040017 1.852375,9.4599395 V 9.4594104 6.2174031 2.9753833 2.9748542 C 1.849545,2.3947764 1.864545,1.9509208 1.918002,1.629266 1.971469,1.3076112 2.0572798,1.1207412 2.1820538,0.99626094 c 0.124774,-0.1244803 0.31332,-0.2104736 0.6355904,-0.26457032 0.3222705,-0.0540718 0.7654284,-0.070264 1.3445543,-0.070264 H 8.4666332 V 0.3968563 Z"
     id="path990"
     inkscape:connector-curvature="0" />
  <path
     inkscape:connector-curvature="0"
     style="color:#000000;display:inline;overflow:visible;visibility:visible;opacity:0.6;fill:#000000;fill-opacity:1;fill-rule:nonzero;stroke:none;stroke-width:0.06614863;marker:none;enable-background:accumulate"
     d="M 11.112337,3.3071297 V 3.0425593 L 8.4666329,0.39685625 H 8.2020626 v 1.11359065 0.042668 0.022917 c 0,1.5059289 0.201592,1.7381397 1.7109762,1.7307589 z"
     id="rect4158-0-3-62-2"
     sodipodi:nodetypes="ccccccscc" />
  <path
     inkscape:connector-curvature="0"
     style="color:#000000;display:inline;overflow:visible;visibility:visible;fill:#888888;fill-opacity:1;fill-rule:nonzero;stroke:none;stroke-width:0.06614863;marker:none;enable-background:accumulate"
     d="M 11.112337,3.0422207 8.4666329,0.39685572 v 0.98127588 0.042668 0.022917 c 0,1.5059289 0.069402,1.6058846 1.5787861,1.5985039 z"
     id="rect4158-0-3-62"
     sodipodi:nodetypes="ccccscc" />
  <path
     inkscape:connector-curvature="0"
     id="path1069"
     style="display:inline;opacity:1;fill:#46a926;fill-opacity:1;fill-rule:evenodd;stroke-width:0.19842853;stroke-linecap:round;stroke-linejoin:round;enable-background:new"
     d="m 6.2146368,4.1008422 c -0.3640593,0.0014 -0.6582827,0.2574883 -0.6582774,0.5487376 0,0.2743687 0.4133911,0.509542 -0.082678,0.509542 h 0.7854431 0.041339 0.6614258 c -0.4960693,0 -0.082678,-0.2351733 -0.082678,-0.509542 0,-0.2922356 -0.2961309,-0.5487376 -0.6614258,-0.5487376 -0.00106,-2.1e-6 -0.00212,-2.1e-6 -0.00315,0 z" />
</svg>
